X: 3007
T: BIRKS OF ABERFELDIE
Q:"Strathspey."
R: Strathspey.
%R:strathspey
B: James Kerr "Merry Melodies" v.3 p.4 #7
Z: 2016 John Chambers <jc:trillian.mit.edu>
%%slurgraces yes
%%graceslurs yes
M: C
L: 1/16
K: D
|:\
vD3uEFA3 d3e(dB3) | d3e(dB3) (cde2) (def2) |\
D3EFA3 d3ef3e | dcBA d3F {F}E4 (EF3) :|
|:\
D3EF3d A3DF3d | A3DF3A BAGF E2A2 |\
D3EFA3 d3ef3e | dcBA d3F {F}E4 (EF3) :|

%%sep 1 1 500
%%sep 1 1 500

